icons/calendar-16.svg

<svg width="16" height="16" viewBox="0 0 16 16" xmlns="http://www.w3.org/2000/svg">
  <path fill-rule="evenodd" clip-rule="evenodd" d="M4.75 0C5.16421 0 5.5 0.335786 5.5 0.75V2H10.5V0.75C10.5 0.335786 10.8358 0 11.25 0C11.6642 0 12 0.335786 12 0.75V2H13.25C14.2165 2 15 2.7835 15 3.75V14.25C15 15.2165 14.2165 16 13.25 16H2.75C1.7835 16 1 15.2165 1 14.25V3.75C1 2.7835 1.7835 2 2.75 2H4V0.75C4 0.335786 4.33579 0 4.75 0ZM4.75 3.5H11.25H13.25C13.3881 3.5 13.5 3.61193 13.5 3.75V6H2.5V3.75C2.5 3.61193 2.61193 3.5 2.75 3.5H4.75ZM2.5 7.5V14.25C2.5 14.3881 2.61193 14.5 2.75 14.5H13.25C13.3881 14.5 13.5 14.3881 13.5 14.25V7.5H2.5Z"/>
</svg>

<svg xmlns="http://www.w3.org/2000/svg" width="16" height="16" viewBox="0 0 16 16"><path fill-rule="evenodd" d="M4.75 0a.75.75 0 01.75.75V2h5V.75a.75.75 0 011.5 0V2h1.25c.966 0 1.75.784 1.75 1.75v10.5A1.75 1.75 0 0113.25 16H2.75A1.75 1.75 0 011 14.25V3.75C1 2.784 1.784 2 2.75 2H4V.75A.75.75 0 014.75 0zm0 3.5h8.5a.25.25 0 01.25.25V6h-11V3.75a.25.25 0 01.25-.25h2zm-2.25 4v6.75c0 .138.112.25.25.25h10.5a.25.25 0 00.25-.25V7.5h-11z"/></svg>
